X: 1
T: Triumphal March, The
M: 4/4
L: 1/8
R: barndance
K: Dmaj
|: AB/c/ |\ 
d2 d>d dAFD | A2 A>A A2 F>G | A2 F/G/A/F/ B(3A/B/A/ GF | E2 A>A AB c/B/A |
d3 c dA F/E/D | A2 A>A A3 F/G/ | A/F/D B/G/E d2 c2 | d2 D>D D2 :|
|: EF |\ 
G2 G>G GBAG | G2 F>^E F2 A/B/c | dcBA GFED | A2 A>A A2 A/B/c |
d3 c dAFD | A2 A>A A3 F/G/ | A/F/D B/G/E d2 c2 | d2 D>D D2 :|
|: DE/F/ |\ 
GAcA eA c/B/A/G/ | FAdA fA d/c/B/A/ | G>AcA eAcA | F>AdA f>Adc |
B2 B>^A Bd/c/ e/d/c/B/ | A2 A>^G A3 =g | f2 a/g/e d2 c2 | d2 d>d d2 :|
